X: 6185
T: Caravan, The
R: jig
M: 6/8
K: Gmajor
||B2d {e}dBd|e2g {b}gfe|d2B {d}BAG|BcB AGE|
B2d {e}dBd|e2g {b}gfe|d2B {d}BAG|ABA GED:|
DBA {B}A3|DBA {B}AGE|DBA {B}AGE|GAG GED|
DBA {B}A3|DBA {B}AGE|DBA {B}AGE|GAG GED:|

